X:8
T:An Dro
R:an dro
O:Bretagne
Z:id:hn-an dro-8
M:2/4
L:1/16
K:Bm
Bcdc B2f2 | d2B2 c2f2 | efed c2Bc | d2Bd c4 |
Bcdc B2f2 | d2B2 c2f2 | efed c2Bc | dBcA B4 :|
|: Bcde f2f2 | e2a2 f2d2 | Bcdf e3f | efed c4 |
Bcde f2f2 | e2a2 f2d2 | Bcdf e2c2 | dBcA B4 :|

This file contains 1 g{\aa}ngl{\aa}t (#1).
You can find more abc tune files at http://www.norbeck.nu/abc/

Last updated 1 June 2013.

(c) Copyright 2002-2013 Henrik Norbeck. This file:
- May be distributed with restrictions below.
- May not be used for commercial purposes (such as printing a tune book to sell).
- This file (or parts of it) may not be made available on a web page for
  download without permission from me.
- This copyright notice must be kept, except when e-mailing individual tunes.
- May be printed on paper for personal use.
- Questions? E-mail: henrik@norbeck.nu

Z:id:hn-ganglat-%X

